X:1
T:Mozart  concerto 21 Andante
T:Mozart  concerto 21 Andante 
T:JAM
T:Breikopf & Hartel Edition 1978
C:JAM
Z:Breikopf & Hartel Edition 1978
%%score { ( 1 3 4 7 ) | ( 2 5 6 ) }
L:1/8
M:4/4
K:F
V:1 treble nm="Piano" snm="Pno."
V:3 treble 
V:4 treble 
V:7 treble 
V:2 bass 
V:5 bass 
V:6 bass 
V:1
 z4 |[Q:1/4=72] z8 |"^F" f7/2"^C" c/"^A" a7/2"^F" f/ |"^C" c'6"^B♭" b/"^A"a/"^G"g/"^F"f/ | %4
"^F♯" ^f2"^G" g2 z4 |"^C" c4"^E" e2"^G" g2 |"^B♭" b4-"^B♭" b"^D"d'"^C"c'"^B♭"b | %7
"^A♭" _a"^A"=a"^A" a2 z4 |"_F""^C\nE♭" z8 |"^C\nD""_F""^C" [dc']8 |"^A♭\nF""_D" [f_a]8 | %11
"^C\nA♭\nF\nC" [Cf_ac']6"^C" c'2 |"^C♯" ^c'4"_C♯\nE" z4 |"^C" c'4"_C\nF" z4 |"^B♭" b4"_B♭\nC" z4 | %15
"^A♭" _a4"_A♭\nD" z4 |"^G" g6"_C" z2 |"^F" f4"^E" e"^D"d"^C"c"^B♭"B |"^A" A"^G" G3-"^G" G2"^C" c2 | %19
"^B♭" B2"^A" A2 (3z [cc']"^C♯\nC♯"[^c^c']"^D\nD" (3[dd']"^E♭\nE♭"[_e_e']"^E\nE"[=e=e'] | %20
"^F\nF" [ff']4"^E\nE" [ee']"^D\nD"[dd']"^C\nC"[cc']"^B♭\nB♭"[Bb] | %21
"^A\nA" [Aa]"^G\nG" [Gg]3"^G\nG" [Gg]"^A"a/4"^G"g/4"^F♯"^f/4"^G"g/4"^C\nC" [cc']2 | %22
"^F\nF" (3[Ff]"^C\nA\nF"[FAc][FAc] (3[FAc]"^A\nF\nC"[CFA][CFA] (3[CFA]"^F\nC\nA"[A,CF][A,CF] (3[A,CF][A,CF][A,CF] | %23
"_F""^F" f3-"^F" f/"^C"c/"^A""_F" a3-"^A" a/"^F"f/ |"^C" c'6"^B♭" b/"^A"a/"^G"g/"^F"f/ | %25
"^F♯" ^f2"^G" g2 z4 |"^C" c4"^E" e2"^G" g2 |"^B♭" b4-"^B♭" b"^D"d'"^C"c'"^B♭"b | %28
"^A♭" _a"^A"=a"^A" a2 z4 |"^C" c'4"^A" A,4"^F" | %30
"^B♭" (3z"^F\nD" [DF][DF]"_F\nD" z z"^B♭" (3z"^F\nD" [DF][DF] z z |"^D" d'4"^B" =B,4 | %32
"^C" z2"^C" c'4"^B♭" z2 | %33
"^E" (7:8:6e/8"^F"f3/16"^E"e/8"^F"f/8"^E"e3/16"^F"f/8"^E"e/8"^F"f/4"^E"e/8"^F"f/8"^E"e/4"^F"f/8"^E"e/8"^F"f/4"^E"e/8"^F"f/8"^E"e/4"^F"f/8"^E"e/8"^F"f/4"^E"e/8"^F"(3f/4"^E"e/4"^F"f/4"^E"e/8"^F"f/4"^E"e/8"^F"f/8"^E"e/4"^F"f/8"^E"(5:4:8e/4"^F"f/8"^E"e/8-"^E"e/8"^F"f/8-"^F"f/8"^E"e/8"^F"f/4"^E"e/8"^F"f/4"^E"e/8"^F"f/8"^E"e/4"^F"f/8"_D"(3:2:2z/"^B♭"B/4-"^B♭""_E"B/ | %34
"_F\nA\nF" z4"^A" a4 |"^B♭" b4"^C♯" ^c4 | %36
"^A" A<"^A".a"^A" a2-"^A" (3a"^F"f"^D"d"^G" (3g"^E"e"^C♯"^c | %37
"^D" d/4"^D"d/4"^E"e/4"^D"d/4"^C♯"^c/4"^D"d/4"^E"e/"^F" f2 z"^F" f"^G"g"^A"a | %38
"^E" e/4"^G"g/4"^B♭".b3/2"^B♭" b2-"^B♭" b/"^G"g/"^G"g/"^E"e/"^E" e/"^C"c/"^G"g/"^B♭"B/ | %39
"^C" c"^B♭"(3B/4"^C"c/4"^B♭"B/4"^C"(3c/4"^B♭"B/4"^C"c/4"_A" z2 z/ z/4"^C" c/4"^D"d/4"^C"c/4"^B"=B/4"^C"c/4"^F" f"^A"a | %40
"^C" c'"^G"g"^G" z2 z"^A" a/"^G"g/"^F" f"^E"e |"^C♯" ^c2"^D" d2 z"^D" d"^D"d"^D"d | %42
"^D" d/4"^D"d/4"^E"e/4"^D"d/4"^C♯"^c/4"^D"d/4"^E"e/"^F♯" ^f/4"^F♯"f/4"^G"g/4"^F♯"f/4"^E"e/4"^F♯"f/4"^G"g/"^A" a/4"^A"a/4"^B♭"b/4"^A"a/4"^A♭"(3:2:2_a/4"^A"=a/"^B"=b/"^C" .c'>"^C"=c | %43
"^C" (3:2:2c/"^B"=B"^A"A/"^G"G/"^G" G2 z2"^G" g2 | %44
"^A♭" _a4-"^A♭" (3a"^D"d"^C♯"^c"^D" (3d"^E♭"_e"^F"f | %45
"^G" g4-"^G" (3g"^C"c"^B"=B"^C" (3c"^D"d"^E♭"_e |"^F" f4-"^F" (3f"^B"=B"^A"A"^B" (3B"^C"c"^D"d | %47
"^E♭" _e4-"^E♭" (3e"^A"A"^A♭"_A"^A" (3=A"^B"=B"^C"c | %48
"^D" d4-"^D" (3d"^G"G"^F♯"^F"^G" (3G"^A"A"^B"=B |"^C" c<"^C"c'-"^C" c'2"^B" =b"^A"a"^G"g"^F"f | %50
"^E" e<"^D"d-"^D" d4"^G" g2 |"^F" f2"^E" e2 z4 | %52
"^C\nC" [cc']4"^B\nB" [=B=b]"^A\nA"[Aa]"^G\nG"[Gg]"^F\nF"[Ff] | %53
"^E\nE" .[Ee]2 z2 z2"^G\nG""^D\nD" [Gg]2 |"^C" z8 |"^E♭""^C" _e'8 |"^D""_A" d'4"_C" z4 |"^G" G8 | %58
"^B♭" b8 | %59
"^A" a4"^G" (3g/4"^A"a/4"^G"g/4"^A"a/8"^G"g/4"^A"a/8"^G"g/8"^A"a/4"^G"g/8"^A"a/8"^G"g/4"^A"a/8"^G"g/8"^A"a/4"^G"g/8"^A"a/8"^G"g/4"^A"a/8"^F"f/"^G"g/ | %60
"^F" f2 z2 z4 |"^B♭" b4"^F" f3/2-"^F"f/4"^F"f/4"^G" g/4"^F"f/4"^E♭"_e/4"^F"f/4"^G"g | %62
"^B♭" B2"^A" A2"^E♭" _e<"^C"c'-"^C" c'>"^A"a |"^E♭" _e'"^C" c'2"^A" a-"^A" a"^F" f2"^E♭" _e | %64
"^F" f"^E♭"(3_e/4"^F"f/4"^E♭"e/4"^F"(3f/4"^E♭"e/4"^F"f/4"^D" d2 z4 | %65
 z4 (3z"^E♭" _e"^F♯"^f"^A" (3a"^C"c'"^E♭"_e' | z4 (3z"^B♭" B"^D"d"^G" (3g"^B♭"b"^D"d' | %67
 z4 (3z"^C♯" ^c"^E"e"^G" (3g"^B♭"b"^C♯"^c' | z4 (3z"^A♭" _A"^C"c"^F" (3f"^A♭"_a"^C"c' | %69
"^C" c'"^B"=b"^A♭" _a4"^G" g"^F"f |"^F" f"^E"e"^D"d"^C"c"^B" =B"^C"c"^C♯"^c"^C"=c | %71
"^C" c/>"^C"c/"^C♯"^c/4"^C"=c/4"^B♭"B/4"^C"c/4"^E♭" _e>"^C♯"^c"^C♯" c/>"^C♯"c/"^E♭"e/4"^C♯"c/4"^C"=c/4"^C♯"^c/4"^F" f>"^E♭"e | %72
"^E♭" z2 z3/2"^C" c/"^A♭" _a>"^E♭"_e"^C" c'>"^A♭"a |"^E♭" _e'6"^C♯" ^c'/"^C"=c'/"^B♭"b/"^A♭"_a/ | %74
"^G" (3z"^E♭\nC♯\nB♭" [B,^C_E][B,CE] z2"^G" (3z [B,CE][B,CE] z2 | %75
"^E♭" _e2-"^E♭" e/>"^E♭"e/"^F"f/4"^E♭"e/4"^D"d/4"^E♭"e/4"^G" g2"^B♭" b2 | %76
"^C♯" ^c'3"^C" =c'/"^B♭"b/"^A♭" _a/"^G"g/"^F"f/"^E♭"_e/"^D" d/"^E♭"e/"^F"f/"^C♯"^c/ | %77
"^E♭" _e"^C♯"(3^c/4"^E♭"e/4"^C♯"c/4"^E♭"(3e/4"^C♯"c/4"^E♭"e/4"^C" =c2 z"^E♭" e/"^D"d/"^F" f/"^E♭"e/"^C♯"^c/"^C"=c/ | %78
"^B♭" B"^A"A z"^C" c' z"^E♭" _e' z"^A" a | %79
"^C" c'2"^B♭" b2 z/"^F" f/"^E"e/"^F"f/"^F♯" ^f/"^F"=f/"^E♭"_e/"^D"d/ | %80
"^C" c"^B"=B z"^D" d' z"^F" f' z"^B" =b |"^D" d'2"^C" c'2 z2"^C" c'2 | %82
"^C♯" ^c'4- (3c'"^G"g"^F♯"^f"^G" (3g"^A♭"_a"^B♭"b | %83
"^C" c'4-"^C" (3c'"^F"f"^E"e"^F" (3f"^G"g"^A♭"_a |"^B♭" b4-"^B♭" (3b"^E"e"^D"d"^E" (3e"^F"f"^G"g | %85
"^A♭" _a4 (3z"^D" d"^C♯"^c"^D" (3d"^E"e"^F"f |"^G" g4 (3z"^C" c"^C♯"^c"^D" (3d"^E♭"_e"^E"=e | %87
"^F" f4"^E" e"^D"d"^C"c"^B♭"B |"^A" .A2"_G" z2 z2"^C""_G" c2 |"^B♭" B2"^A" A2 z4 | %90
"^F" f4"^E" e"^D"d"^C"c"^B♭"B |"^A" A2"^G" G2"^G\nG" [G,G]4 |"^F\nF" [Ff]8 | %93
"^C\nC" [Cc']4"^A" A,4 |"^F" F2"^E" =E2"^F" F2"^G\nE" [EG]2 |"^D" d'4"^B" =B,4 | %96
"^A" A2"^F\nF" [Ff']3"^C" c'"^A"a"^F"f | %97
"^E" (7:8:6e/8"^F"f3/16"^E"e/8"^F"f/8"^E"e3/16"^F"f/8"^E"e/8"^F"f/4"^E"e/8"^F"f/8"^E"e/4"^F"f/8"^E"e/8"^F"f/4"^E"e/8"^F"f/8"^E"e/4"^F"f/8"^E"e/8"^F"f/4"^E"e/8"^F"(3f/4"^E"e/4"^F"f/4"^G"g/8"^A"a/4"^G"g/8"^A"a/8"^G"g/4"^A"a/8"^G"(5:4:8g/4"^A"a/8"^G"g/8-"^G"g/8"^A"a/8-"^A"a/8"^G"g/8"^A"a/4"^G"g/8"^A"a/4"^G"g/8"^A"a/8"^G"g/4"^A"a/8"_F" (3:2:2z/"^B♭" B/4-"^B♭""_G"B/ | %98
"_A" z/4"^A" .a3/4 z"_C" z2"_C" z4 | %99
"^C\nB♭\nG\nE\nC" (3[CEGBc][CEGBc][CEGBc] (3[CEGBc][CEGBc][CEGBc] (3[CEGBc][CEGBc][CEGBc] (3[CEGBc][CEGB][CEGBc] | %100
"^C\nA\nF\nC" (3[CFAc][CFAc][CFAc] (3[CFAc][CFAc][CFAc] (3[CFAc][CFAc][CFAc] (3[CFAc][CFAc][CFAc] | %101
"^C\nB♭\nG\nE\nC" (3[CEGBc][CEGBc][CEGBc] (3[CEGBc][CEGBc][CEGBc] (3[CEGBc][CEGBc][CEGBc] (3[CEGBc][CEGBc][CEGBc] | %102
"^C\nA\nF\nC" (3[CFAc][CFAc][CFAc] (3[CFAc]"^A\nF\nC"[CFA][CFA] (3[CFA]"^F\nC\nA"[A,CF][A,CF] (3[A,CF][A,CF][A,CF] | %103
"^F\nC\nA" .[A,CF]4 z4 |] %104
V:2
 z4 | %1
"^C\nA\nF" (3[F,A,C][F,A,C][F,A,C] (3[F,A,C][F,A,C][F,A,C] (3[F,A,C][F,A,C][F,A,C] (3[F,A,C][F,A,C][F,A,C] | %2
"^F" F, z3"^C" C z3 | %3
"^F" (3F,,"^C\nA\nF"[F,A,C][F,A,C]"^A" (3A,,[F,A,C][F,A,C]"^C" (3C,[F,A,C][F,A,C]"^F" (3F,,[F,A,C][F,A,C] | %4
"^C" (3C,,"^C\nB♭\nE"[E,B,C][E,B,C]"^E" (3E,,[E,B,C][E,B,C]"^G" (3G,,[E,B,C][E,B,C] (3[E,B,C][E,B,C][E,B,C] | %5
"^C" (3C,,"^C\nB♭\nE"[E,B,C][E,B,C]"^E" (3E,,[E,B,C][E,B,C]"^G" (3G,,[E,B,C][E,B,C] (3[E,B,C][E,B,C][E,B,C] | %6
"^C" (3C,,"^C\nB♭\nE"[E,B,C][E,B,C]"^E" (3E,,[E,B,C][E,B,C]"^G" (3G,,[E,B,C][E,B,C]"^C" (3C,,"^C\nG\nE"[E,G,C][E,G,C] | %7
"^F" (3F,,"^C\nA\nF"[F,A,C][F,A,C]"^A" (3A,,[F,A,C][F,A,C]"^C" (3C,[F,A,C][F,A,C] (3[F,A,C][F,A,C][F,A,C] | %8
"^A" (3A,,"^F\nE♭\nC"[C_EF][CEF]"^C" (3C,[CEF][CEF]"^F" (3F,[CEF][CEF] (3[CEF][CEF][CEF] | %9
"^B♭" (3B,,"^F\nD"[DF]"^F\nD"[DF]"^D" (3D,"^F\nD"[DF]"^F\nD"[DF]"^F" (3F,"^F\nD\nB♭"[B,DF]"^F\nD\nB♭"[B,DF]"^F\nD\nB♭" (3[B,DF]"^F\nD\nB♭"[B,DF]"^F\nD\nB♭"[B,DF] | %10
"^B" (3=B,,"^F\nD\nA♭"[_A,DF][A,DF]"^D" (3D,[A,DF][A,DF]"^F" (3F,"^F\nD\nA♭"[A,DF][A,DF] (3[A,DF][A,DF][A,DF] | %11
"^C" (3C,"^F\nC\nA♭"[_A,CF][A,CF]"^F" (3F,[A,CF][A,CF]"^A♭" (3A,[A,CF][A,CF] (3[A,CF][A,CF][A,CF] | %12
"^C\nC" (3[C,,C,]"^F\nB♭\nG"[G,B,F][G,B,F]"^G\nG" (3[G,,G,][G,B,E][G,B,E]"^B♭\nB♭" (3[B,,B,]"^G\nE\nB♭"[B,EG][B,E] (3[B,EG][B,EG][B,EG] | %13
"^C\nC" (3[C,,C,]"^G\nC\nA♭"[_A,CG][A,CG]"^A♭\nA♭" (3[_A,,A,]"^F\nC\nA♭"[A,CF][A,CF]"^C\nC" (3[C,C]"^A♭\nF\nC"[CF_A][CFA] (3[CFA][CFA][CFA] | %14
"^C\nC" (3[C,,C,]"^A♭\nE\nC♯"[^CE_A][CEA]"^E\nE" (3[E,,E,]"^G\nE\nC♯"[CEG][CEG]"^G\nG" (3[G,,G,]"^B♭\nE\nC"[=CEB][CEB] (3[CGB][CGB][CGB] | %15
"^C\nC" (3[C,,C,][K:treble]"^B♭\nF\nB"[=B,FB][B,FB][K:bass]"^F\nF" (3[F,,F,][K:treble]"^A♭\nF\nB"[B,F_A][B,FA][K:bass]"^A♭\nA♭" (3[_A,,_A,][K:treble]"^B\nF\nD"[DF=B][DFB]"^B\nA♭\nF" (3[FAB][FAB][FAB] | %16
"^C\nC" .[C,,C,]2"^G\nG" .[G,,G,]2"^B♭\nB♭" .[B,,B,]2"^B♭\nB♭" (3[B,,,B,,]"^E\nC\nG"[G,CE][G,CE] | %17
"^A\nA" (3[A,,,A,,]"^F\nC\nA"[A,CF][A,CF]"^F\nF" (3[F,,F,][A,CF][A,CF]"^B♭\nB♭" (3[B,,,B,,]"^F\nD\nG"[G,DF][G,DF]"^G\nG" (3[G,,G,][G,DF][G,DF] | %18
"^C\nC" (3[C,,C,]"^F\nC\nG"[G,CF][G,CF]"^B♭\nB♭" (3[B,,,B,,]"^F\nD\nG"[G,DF][G,DF]"^C\nC" (3[C,,C,]"^F\nC\nG"[G,CF][G,CF]"^C\nC" (3[C,,C,]"^E\nC\nG"[G,CE][G,CE] | %19
"^C♯\nC♯" (3[^C,,^C,]"^E\nG"[G,E]"^E\nG"[G,E]"^D\nD" (3[D,,D,]"^F\nF"[F,F][F,F]"^C\nC" (3[=C,,=C,]"^F\nA"[A,F][A,F]"^B♭\nB♭" (3[B,,,B,,]"^G\nC"[CG][CG] | %20
[K:bass]"^A\nA" (3[A,,,A,,][K:treble]"^F\nC\nA"[A,CF][A,CF][K:bass]"^F\nF" (3[F,,F,][K:treble]"^F\nC\nA"[A,CF][A,CF][K:bass]"^B♭\nB♭" (3[B,,,B,,][K:treble]"^F\nD\nG"[G,DF][G,DF][K:bass]"^G\nG" (3[G,,G,][K:treble]"^F\nD\nG"[G,DF][G,DF] | %21
[K:bass]"^C\nC" (3[C,,C,]"^F\nC\nG"[G,CF][G,CF]"^C\nB♭" (3[B,,,C,]"^F\nD\nG"[G,DF][G,DF]"^C\nC" (3[C,,C,]"^F\nC\nG"[G,CF][G,CF]"^C\nC" (3[C,,C,]"^E\nC\nB♭"[B,CE][B,CE] | %22
"^F\nF" (3[F,,F,]"^C\nA\nF"[F,A,C][F,A,C] (3[F,A,C]"^A\nF"[F,A,][F,A,] (3[F,A,]"^F\nC\nF"[F,,C,F,][F,,C,F,] (3[F,,C,F,][F,,C,F,][F,,C,F,] | %23
"^C\nA\nF\nC\nF" .[F,,C,F,A,C]2"^A\nA" .[A,,A,]2"^C\nC" .[C,C]2 z2 | %24
"^F" (3z"^C\nA" [A,C][A,C]"_C\nA" z2"^F" (3z"^C\nA" [A,C][A,C] z2 | %25
"^C" (3z"^B♭\nG\nE" [E,G,B,][E,G,B,] z2"^C" (3z [E,G,B,][E,G,B,] z2 | %26
"^C" (3z"^B♭\nG\nE" [E,G,B,][E,G,B,] z2"^C" (3z [E,G,B,][E,G,B,] z2 | %27
"^C" (3z"^B♭\nG\nE" [E,G,B,][E,G,B,] z2"^C" (3z [E,G,B,][E,G,B,] z2 | %28
"^F" (3z"^C\nA" [A,C]"^C\nA"[A,C]"_C\nA" z2"^F" (3z"^C\nA" [A,C]"^C\nA"[A,C] z2 | %29
"^A" (3z"^E♭\nC" [C_E][CE]"_E♭\nC" z2 (3[CE][CE][CE] (3[CE][CE][CE] | %30
"_B♭\nB♭" z2"^D" .D,2"_F\nF" z4 |"^B\nB" .[=B,,,=B,,]2"^D\nD" .[D,,D,]2"^F\nF" .[F,,F,]2 z2 | %32
"^C\nC" .[C,,C,]2"^F\nF" .[F,,F,]2"^A\nA" .[A,,A,]2"^C\nC" .[C,C]2 | %33
[K:]"^C" (3z"^B♭\nG" [GB][GB]"_B♭\nG" z2"^C" (3z"^B♭\nG" [GB][GB] z2 | %34
[K:bass]"^F\nF" .[F,,F,]2"^A\nA" .[A,,A,]2"^C\nC" .[C,C]2 z2 | %35
"^E\nE" .[E,,E,]2"^G\nG" .[G,,G,]2"^A\nA" .[A,,A,]2"^A\nA" .[A,,,A,,]2 | %36
"^D" D,2 z2"^D" D2"^A" A,2 |"^D" D,2 z2"^D" D,2 z2 |"^C\nC" [C,,C,]2 z2"^C" C,2 z2 | %39
"^F\nF" [F,,F,]2 z2 z4 |"^E\nE" .[E,,E,]2"^G\nG" .[G,,G,]2"^C\nC" .[C,C]2 z2 | %41
"^F\nF" .[F,,F,]2"^A\nA" .[A,,A,]2"^D\nD" .[D,D]2 z2 | %42
"^F♯\nF♯" .[^F,,^F,]2"^A\nA" .[A,,A,]2"^D\nD" .[D,D]2 z2 | %43
"^G\nG" [G,,G,]2"^B\nD" (3[D,=B,][D,B,][D,B,]"^C\nC" (3[C,C][C,C][C,C]"^C\nG\nE♭" (3[_E,G,C][E,G,C][E,G,C] | %44
"^G" (3G,,"^C\nF\nD"[D,F,C][D,F,C]"^D" (3D,"^B\nA♭\nF"[F,_A,=B,][F,A,B,]"^F" (3F,"^D\nB\nA♭"[A,B,D][A,B,D] (3[A,B,D][A,B,D][A,B,D] | %45
"^G" (3G,,"^D\nG\nE♭"[_E,G,D][E,G,D]"^E♭" (3E,"^C\nG"[G,C][G,C]"^G" (3G,"^E♭\nC"[C_E][CE]"^E♭\nC" (3[CE][CE][CE] | %46
"^A" (3A,,"^E♭\nB\nA♭"[_A,=B,_E][A,B,E]"^B♭" (3B,,"^D\nB\nA♭\nF"[F,A,B,D][F,A,B,D]"^D" (3D,"^F\nB\nG"[G,B,F][G,B,F]"^F\nD\nG" (3[G,DF][G,DF][G,DF] | %47
[K:bass]"^G" (3G,,"^F\nC\nF♯"[^F,CF][F,CF]"^C" (3C,"^E♭\nC\nF♯"[F,C_E][F,CE]"^E" (3E,"^F♯\nC\nA"[A,C^F][A,CF]"^F♯\nE♭\nC" (3[CEF][CEF][CEF] | %48
"^G\nG" [G,,G,]2 z2 z2"^F" F,2 | %49
"^E" (3E,"^G"G,"^C"C"^C" (3C,"^E"E,"^C"C"^F" (3F,"^A"A,"^C"C"^D" (3D,"^A"A,"^C"C | %50
"^G" (3G,"^C"C"^D"D"^F" (3F,"^C"C"^D"D"^G" (3G,"^C"C"^D"D[K:bass]"^G" (3G,"^B"=B,"^D"D | %51
"^A♭" (3_A,"^B"=B,"^D"D"^A" (3=A,"^C"C"^E"E"^G" (3G,"^C"C"^E"E"^G" (3G,"^B"B,"^D"D | %52
"^E" (3E,"^G"G,"^C"C"^C" (3C,"^E"E,"^C"C"^F" (3F,"^A"A,"^C"C"^D" (3D,"^A"A,"^C"C | %53
"^G" (3G,"^C"C"^D"D"^F" (3F,"^C"C"^D"D"^G" (3G,"^C"C"^D"D"^G" (3G,"^B"=B,"^F"F | %54
 (3:2:2z2"^C\nG\nE" [E,G,C]"^G" (3G,,[E,G,C][E,G,C]"^C" (3C,"^C\nG\nE"[E,G,C][E,G,C]"^B♭" (3B,,"^C\nG\nE"[E,G,C][E,G,C] | %55
"^A" (3A,,"^F♯\nC\nA"[A,C^F][A,CF]"^C" (3C,[A,CF][A,CF]"^A" (3A,,[K:treble][A,CF][A,CF][K:bass]"^G" (3G,,[K:treble]"^G\nE♭\nC"[C_EG][CEG] | %56
[K:bass]"^F♯" (3^F,,[K:treble]"^A\nD\nC"[CDA][CDA][K:bass]"^A" (3A,,[K:treble][CDA][CDA][K:bass]"^D" (3D,[K:treble][CDA][CDA]"_F♯" (3^F,[CDA][CDA] | %57
"^G" (3G,"^B♭"B,"^D"D"^G" (3G,"^B♭"B,"^D"D"^G" (3G,"^B♭"B,"^D"D"^G" (3G,"^B♭"B,"^D"D | %58
"^G" (3G,"^B♭"B,"^C♯"^C"^G" (3G,"^B♭"B,"^C♯"C"^G" (3G,"^B♭"B,"^C♯"C"^G" (3G,"^B♭"B,"^D"D | %59
"^G" (3G,"^B♭"B,"^E"E"^G" (3G,"^B♭"B,[K:treble]"^E"E"^A" (3A,"^E"E"^A"A"^A" (3A,"^E"E"^A"A | %60
"^D\nD" .[D,,D,]2"^D\nD" .[D,D]2"^C\nC" .[C,C]2"^F\nF" .[F,,F,]2 | %61
"^B♭\nB♭" [B,,B,]2 z2"^B♭\nB♭" [B,,B,]2 z2 |"^C\nC" [C,C]2 z2"^D\nC" [C,D]2 z2 | %63
"^F\nF" [F,,F,]2 z2"^F\nF" [F,,F,]2 z2 |"^B♭\nB♭" [B,,B,]2 z2"^B♭\nB♭" [B,,B,]2 z2 | %65
"^A" (3A,,[K:treble]"^F♯\nE♭\nC"[C_E^F][CEF][K:bass]"^C" (3C,[K:treble][CEF][CEF]"^F♯" (3^F,[CEF][CEF] (3[CEF][CEF][CEF] | %66
"^B♭" (3B,,[K:treble]"^G\nD\nB♭"[B,DG][B,DG]"^D" (3D,[B,DG][B,DG]"^G" (3G,[B,DG][B,DG] (3[B,DG][B,DG][B,DG] | %67
[K:bass]"^G" (3G,,"^E\nC♯\nB♭"[B,^CE][B,CE]"^B♭" (3B,,[B,CE][B,CE]"^E" (3E,[B,CE][B,CE] (3[B,CE][B,CE][B,CE] | %68
"^A♭" (3_A,,"^F\nC\nA♭"[_A,CF][A,CF]"^C" (3C,[A,CF][A,CF]"^F" (3F,[A,CF][A,CF] (3[A,CF][A,CF][A,CF] | %69
"^F\nC♯" [^C,F,]8 |"^G\nC" [C,G,]2 z2 z4 |"^E♭""_C" _E4-"^E♭\nB♭" [B,E]4 | %72
[K:treble]"^A♭" (3z"^E♭\nC" [C_E][CE]"_E♭\nC" z2"^A♭" (3z"^E♭\nC" [CE][CE] z2 | %73
"^A♭" (3z"^E♭\nC" [C_E][CE] z2"^A♭" (3z"^E♭\nC" [CE]"^E♭\nC"[CE] z2 | %74
[K:bass]"^G\nG" .[G,,,G,,]2"^B♭\nB♭" .[B,,,B,,]2"^E♭\nE♭" .[_E,,_E,]2 z2 | %75
"^E♭" (3z"^C♯\nB♭\nG" [G,B,^C][G,B,] z2"^E♭" (3z [G,B,C][G,B,C] z2 | %76
"^E♭" (3z"^C♯\nB♭\nG" [G,B,^C][G,B,C] z2"^E♭" (3z [G,B,C][G,B,C] z2 | %77
"^A♭" (3z"^E♭\nC" [C_E][CE]"_E♭\nC" z2"^A♭" (3z [CE][CE]"^F♯" (3z [CE][CE] | %78
"^F" (3z"^E♭\nC\nA" [A,C_E][A,CE] z2"^F" (3z [A,CE][A,CE] z2 | %79
"^B♭" (3z[K:treble]"^F\nC♯" [^CF][CF] z2"^B♭" (3:2:4z"^F\nC♯" [CF]/"^C"=C/"^F"F"^A♭" (3z"^F\nC" [CF][CF] | %80
"^G\nG" .[G,,G,]2"^B\nB" .[=B,,=B,]2"^D\nD" .[D,D]2 z2 | %81
 (3z"^C" C"^C"C"^E\nG" (3[G,E][G,E][G,E]"^F\nF" (3[F,F][F,F][F,F]"^C\nA♭" (3[_A,C][A,C][A,C] | %82
"^C\nC" (3[C,,C,]"^F\nB♭\nG"[G,B,F][G,B,F]"^G\nG" (3[G,,G,][G,B,E][G,B,E]"^B♭\nB♭" (3[B,,B,]"^G\nE\nB♭"[B,EG][B,EG] (3[B,EG][B,EG][B,EG] | %83
[K:bass]"^C\nC" (3[C,,C,]"^G\nC\nA♭"[_A,CG][A,CG]"^A♭\nA♭" (3[_A,,A,]"^F\nC\nA♭"[A,CF][A,CF]"^C\nC" (3[C,C]"^A♭\nF\nC"[CF_A][CFA] (3[CFA][CFA][CFA] | %84
"^C\nC" [C,C]2 z2 z4 | %85
"^C\nC" (3[C,,C,][K:treble]"^B♭\nF\nB"[=B,FB][B,FB][K:bass]"^F\nF" (3[F,,F,][K:treble]"^A♭\nF\nB"[B,F_A][B,FA][K:bass]"^A♭\nA♭" (3[_A,,_A,][K:treble]"^B\nF\nD"[DF=B][DFB]"^B\nA♭\nF" (3[FAB][FAB][FAB] | %86
"^C\nC" [C,C]2 z2 z2"^B♭" B,,2 | %87
"^A" (3A,,"^C"C,"^F"F,"^F" (3F,,"^A"A,,"^F"F,"^B♭" (3B,,"^D"D,"^F"F,"^G" (3G,,"^D"D,"^F"F, | %88
"^C" (3C,"^F"F,"^G"G,"^B♭" (3B,,"^F"F,"^G"G,"^C" (3C,"^F"F,"^G"G,"^C" (3C,"^E"E,"^G"G, | %89
"^C♯" (3^C,"^E"E,"^G"G,"^D" (3D,"^F"F,"^A"A,"^C" (3=C,"^F"F,"^A"A,"^B♭" (3B,,"^E"E,"^G"G, | %90
"^A" (3A,,"^C"C,"^F"F,"^F" (3F,,"^A"A,,"^F"F,"^B♭" (3B,,"^D"D,"^F"F,"^G" (3G,,"^D"D,"^F"F, | %91
"^C" (3C,"^F"F,"^G"G,"^B♭" (3B,,"^F"F,"^G"G,"^C" (3C,"^F"F,"^G"G,"^C" (3C,"^E"E,"^B♭"B, | %92
"^C\nA" [A,C]2"^B\nG♯" [^G,=B,]2"^C\nA" [A,C]2"^D\nB" [B,D]2 | %93
"^A\nA" .[A,,,A,,]2"^C\nC" .[C,,C,]2"^F\nF" .[F,,F,]2"^A\nA" .[A,,,A,,]2 | %94
"^D\nB♭" [B,,D]2"^C♯\nB♭" [B,,^C]2 [B,,D]2 z2 | %95
"^B\nB" .[=B,,,=B,,]2"^D\nD" .[D,,D,]2"^F\nF" .[F,,F,]2"^B\nB" .[B,,,B,,]2 | %96
"^C\nC" .[C,,C,]2"^F\nF" .[F,,F,]2"^A\nA" .[A,,A,]2 .[C,C]2 | %97
"^B♭\nB♭" .[B,,B,]2"^G\nG" .[G,,G,]2"^C\nC" .[C,C]2"^C\nC" .[C,,C,]2 | %98
"^F\nF" .[F,,F,]2"^A\nA" .[A,,A,]2"^C\nC" .[C,C]2 z2 | %99
"^C\nC" .[C,,C,]2"^E\nE" .[E,,E,]2"^G\nG" .[G,,G,]2"^C\nC" .[C,,C,]2 | %100
"^F\nF" .[F,,F,]2"^A\nA" .[A,,A,]2"^C\nC" .[C,C]2 z2 | %101
"^C\nC" .[C,,C,]2"^E\nE" .[E,,E,]2"^G\nG" .[G,,G,]2"^C\nC" .[C,,C,]2 | %102
"^F\nF" (3[F,,F,]"^F"F,F,"^A\nF\nA" (3[A,,F,A,]"^F"F,F,"^C\nF\nC" (3[C,C,F,]"^C\nF"[F,,C,][F,,C,]"^A\nC\nA\nF" (3[F,,A,,C,A,]"^C\nF"[F,,C,][F,,C,] | %103
"^F\nC\nF" .[F,,C,F,]4 z4 |] %104
V:3
 x4 | x8 | x8 | x8 | x8 | x8 | x8 | x8 | f8- | f8 | d'4"^B" =B,3"^B" B, | x8 | %12
 z2"_G\nC♯\nB♭" [B^cg]2 [e^c']2"^G" g2 | z2"_A♭\nC" [c_a]2 [fc']2"_F" f2 | %14
 z2"_E\nC♯\nB♭" [B^ce]2 [=cb]2"_E" e2 | z2"_F\nB\nA♭" [_A=Bf]2 [d_a]2"_D" d2 | %16
 (3z"_C\nG\nF" [FGc][FGc]"_F" f2"_E" e2 c2 | x8 | x8 | x8 | x8 | x8 | x8 | %23
 x10/3"_C\nA" (3:2:1[A,C] x2"_C\nA" (3:2:1[A,C] x2/3 (3:2:1[A,C] | x8 | x8 | x8 | x8 | x8 | %29
 (3z"_F" FF"^F" x8/3"_F" (3:2:2FF"^F" z2 | x2 (3[DF][DF][DF] x2 (3[DF][DF][DF] | %31
 (3z"_A♭\nF\nD" [DF_A][DFA] z2 x2/3 (3:2:2[DFA][DFA] z2 | %32
 x8/3"_A" (3:2:2AA x5/2"^A" a/"^G"g/"^F"f/ | z4 z2 z d/e/ | %34
 (3[faf']"_F\nC\nA"[Acf][Acf] (3[Acf][Acf][Acf] x2/3"_C\nA\nF" (3:2:2[FAc][FAc] z2 | %35
 x2/3"_C♯\nB♭\nG" (3:2:2[GB^c][GBc] x8/3"_C♯\nG\nE" (3:2:2[eg^c'][egc'] x2 | x8 | x8 | x8 | %39
 x2 A4 x2 | x2 g4 x2 | x8 | x8 | x8 | x8 | x8 | x8 | x8 | x8 | x8 | x8 | x8 | x8 | %53
 z/"_D\nD" [Dd]3/2- [Dd]4- [Dd]/ z/ z | x8 | z2"_F♯" ^f4"_G" g2 | %56
 a2"^F♯" z2 (3c'/4"_D"d'/4"_C"c'/4"_D"(3d'/4"_C"c'/4"_D"d'/4"_C"(3c'/4"_D"d'/4"_C"c'/4"_D"(3d'/4"_C"c'/4"_D"d'/4"_C\nA" (3[a-c']/4"_D\nA"[a-d']/4"_C\nA"[a-c']/4"_A""^D"a3/2 | %57
 x8 | x8 | x8 | x8 | x8 | x8 | x8 | x8 | x8 | x8 | x8 | x8 | x8 | x8 | x8 | _e4 z4 | x8 | %74
 x2 (3[B,^C_E][B,CE][B,CE] x2 (3[B,CE][B,CE][B,CE] | x8 | x8 | x8 | x8 | x8 | x8 | x8 | x8 | x8 | %84
 x8 | x8 | x8 | x8 | z/"_G" G3/2- G4- G/ z/ z | x8 | x8 | x8 | z8 | %93
 x2/3"_F\nE♭\nC" (3:2:2[C_EF][CEF] x8/3 (3:2:2[CEF][CEF] x2 | x8 | %95
 (3z"_A♭" _A"_A♭"A"^A♭" z2 x2/3 (3:2:2AA z2 | x8 | z4 x3 f/g/ | %98
 (3:2:5A/"_F"f/"_F".f'"_C"C/"_C"C/ (3C"_C"C"_C"C (3C"_C"C"_C"C"_C" (3C"_C"C"_C"C | x8 | x8 | x8 | %102
 x8 | x8 |] %104
V:4
 x4 | x8 | x8 | x8 | x8 | x8 | x8 | x8 | [_ec']4-"^C\nE♭\nA" [A,e-c'-]3 [A,ec'] | %9
 C"^B♭"B,"^B♭" B,2 x4 | x8 | x8 | x8 | x8 | x8 | x8 | %16
 x8/3"^C♯\nB♭\nG" (3:2:2[GB^c][GBc]x2/3"^C\nG"(3:2:2[G=c][Gc] z2 | x8 | x8 | x8 | x8 | x8 | x8 | %23
 F,4 F,4 | x8 | x8 | x8 | x8 | x8 | x2 (3F"^F"F"^F"F x2 (3FF"^F"F | B,4 B,4 | %31
 x2 (3[DF_A][DFA][DFA] x2 (3[DFA][DFA][DFA] | x2/3"^A" (3:2:2AA x5/2 A z/ (3.b"^A"A"^A"A | x8 | %34
 z4 x2 (3[FAc][FA][FAc] | x2 (3[GB^c][GBc][GBc] x2"^C♯\nG\nE" (3[eg^c'][egc'][egc'] | x8 | x8 | %38
 x8 | x8 | x8 | x8 | x8 | x8 | x8 | x8 | x8 | x8 | x8 | x8 | x8 | x8 | x8 | x8 | c8- | c2 x2 z4 | %56
 z2 ^f4 z/ (3d'/4"^C"c'/4"^D"d'/4"^B♭"b/"^C"c'/ | x8 | x8 | x8 | x8 | x8 | x8 | x8 | x8 | x8 | x8 | %67
 x8 | x8 | x8 | x8 | x8 | x8 | x8 | G,4 G,4 | x8 | x8 | x8 | x8 | x8 | x8 | x8 | x8 | x8 | x8 | %85
 x8 | x8 | x8 | x8 | x8 | x8 | x8 | x8 | x2 (3[C_EF][CEF][CEF] x2 (3[CEF][CEF][CEF] | x8 | %95
 x2 (3_AAA x2 (3AA z | x8 | x8 | x8 | x8 | x8 | x8 | x8 | x8 |] %104
V:5
 x4 | x8 | x8 | x8 | x8 | x8 | x8 | x8 | x8 | x8 | x8 | x8 | x8 | x8 | x8 | %15
 x2/3[K:treble] x4/3[K:bass] x2/3[K:treble] x4/3[K:bass] x2/3[K:treble] x10/3 | x8 | x8 | x8 | x8 | %20
[K:bass] x2/3[K:treble] x4/3[K:bass] x2/3[K:treble] x4/3[K:bass] x2/3[K:treble] x4/3[K:bass] x2/3[K:treble] x4/3 | %21
[K:bass] x8 | x8 | x8 | x2 (3[A,C][A,C][A,C] x2 (3[A,C][A,C][A,C] | %25
 x2 (3[E,G,B,][E,G,B,][E,G,B,] x2 (3[E,G,B,][E,G,][E,G,B,] | %26
 x2 (3[E,G,B,][E,G,B,][E,G,B,] x2 (3[E,G,B,][E,G,B,][E,G,B,] | %27
 x2 (3[E,G,B,][E,G,B,][E,G,B,] x2 (3[E,G,B,][E,G,B,][E,G,B,] | %28
 x2 (3[A,C][A,C][A,C] x2 (3[A,C][A,C][A,C] | x2 (3[C_E][CE][CE] z4 | %30
 .[B,,,B,,]2"_D" D,,3/16-D,,3/4 z .[F,,F,]2 x33/16 | x8 | x8 | %33
[K:] x2 (3[GB][GB][GB] x2 (3[GB][GB]"_G"G |[K:bass] x8 | x8 | x8 | x8 | x8 | x8 | x8 | x8 | x8 | %43
 x8 | x8 | x8 | x8 |[K:bass] x8 | x8 | x8 | x6[K:bass] x2 | x8 | x8 | x8 | x8 | %55
 x14/3[K:treble] x4/3[K:bass] x2/3[K:treble] x4/3 | %56
[K:bass] x2/3[K:treble] x4/3[K:bass] x2/3[K:treble] x4/3[K:bass] x2/3[K:treble] x10/3 | x8 | x8 | %59
 x10/3[K:treble] x14/3 | x8 | x8 | x8 | x8 | x8 | %65
 x2/3[K:treble] x4/3[K:bass] x2/3[K:treble] x16/3 | x2/3[K:treble] x22/3 |[K:bass] x8 | x8 | x8 | %70
 x8 | C4 z4 |[K:treble] x2 (3[C_E][CE][CE] x2 (3[CE][CE][CE] | %73
 x2 (3[C_E][CE][CE] x2 (3[CE][CE][CE] |[K:bass] x8 | %75
 x2 (3[G,B,^C][G,B,C][G,B,C] x2 (3[G,B,C][G,B,C][G,B,C] | %76
 x2 (3[G,B,^C][G,B,C][G,B,C] x2 (3[G,B,C][G,B,C][G,B,C] | x2 (3[C_E][CE][CE] z4 | %78
 x2 (3[A,C_E][A,CE][A,CE] x2 (3[A,CE][A,CE][A,CE] | z2[K:treble] (3[^CF][CF][CF] x4 | x8 | x8 | %82
 x8 |[K:bass] x8 | x8 | %85
 x2/3[K:treble] x4/3[K:bass] x2/3[K:treble] x4/3[K:bass] x2/3[K:treble] x10/3 | x8 | x8 | x8 | x8 | %90
 x8 | x8 | x8 | x8 | x8 | x8 | x8 | x8 | x8 | x8 | x8 | x8 | x8 | x8 |] %104
V:6
 x4 | x8 | x8 | x8 | x8 | x8 | x8 | x8 | x8 | x8 | x8 | x8 | x8 | x8 | x8 | %15
 x2/3[K:treble] x4/3[K:bass] x2/3[K:treble] x4/3[K:bass] x2/3[K:treble] x10/3 | x8 | x8 | x8 | x8 | %20
[K:bass] x2/3[K:treble] x4/3[K:bass] x2/3[K:treble] x4/3[K:bass] x2/3[K:treble] x4/3[K:bass] x2/3[K:treble] x4/3 | %21
[K:bass] x8 | x8 | x8 | F,4 F,4 | C,4 C,4 | C,4 C,4 | C,4 C,4 | F,4 F,4 | A,4 z4 | x8 | x8 | x8 | %33
[K:] C4 C4 |[K:bass] x8 | x8 | x8 | x8 | x8 | x8 | x8 | x8 | x8 | x8 | x8 | x8 | x8 |[K:bass] x8 | %48
 x8 | x8 | x6[K:bass] x2 | x8 | x8 | x8 | x8 | x14/3[K:treble] x4/3[K:bass] x2/3[K:treble] x4/3 | %56
[K:bass] x2/3[K:treble] x4/3[K:bass] x2/3[K:treble] x4/3[K:bass] x2/3[K:treble] x10/3 | x8 | x8 | %59
 x10/3[K:treble] x14/3 | x8 | x8 | x8 | x8 | x8 | %65
 x2/3[K:treble] x4/3[K:bass] x2/3[K:treble] x16/3 | x2/3[K:treble] x22/3 |[K:bass] x8 | x8 | x8 | %70
 x8 | x8 |[K:treble] _A,4 A,4 | _A,4 A,4 |[K:bass] x8 | _E,4 E,4 | _E,4 E,4 | _A,4 A,2 ^F,2 | %78
 F,4 F,4 | B,4[K:treble] B,2 _A,2 | x8 | x8 | x8 |[K:bass] x8 | x8 | %85
 x2/3[K:treble] x4/3[K:bass] x2/3[K:treble] x4/3[K:bass] x2/3[K:treble] x10/3 | x8 | x8 | x8 | x8 | %90
 x8 | x8 | x8 | x8 | x8 | x8 | x8 | x8 | x8 | x8 | x8 | x8 | x8 | x8 |] %104
V:7
 x4 | x8 | x8 | x8 | x8 | x8 | x8 | x8 | x8 | x8 | x8 | x8 | x8 | x8 | x8 | x8 | x8 | x8 | x8 | %19
 x8 | x8 | x8 | x8 | x8 | x8 | x8 | x8 | x8 | x8 | x8 | x8 | x8 | C4 x4 | x8 | x8 | x8 | x8 | x8 | %38
 x8 | x8 | x8 | x8 | x8 | x8 | x8 | x8 | x8 | x8 | x8 | x8 | x8 | x8 | x8 | x8 | x8 | x8 | x8 | %57
 x8 | x8 | x8 | x8 | x8 | x8 | x8 | x8 | x8 | x8 | x8 | x8 | x8 | x8 | x8 | x8 | x8 | x8 | x8 | %76
 x8 | x8 | x8 | x8 | x8 | x8 | x8 | x8 | x8 | x8 | x8 | x8 | x8 | x8 | x8 | x8 | x8 | x8 | x8 | %95
 x8 | x8 | x8 | x8 | x8 | x8 | x8 | x8 | x8 |] %104

